icons/gear-24.svg

<svg xmlns="http://www.w3.org/2000/svg" width="24" height="24" viewBox="0 0 24 24"><path d="M16 12a4 4 0 11-8 0 4 4 0 018 0zm-1.5 0a2.5 2.5 0 10-5 0 2.5 2.5 0 005 0z"/><path d="M12 1c.266 0 .532.009.797.028.763.055 1.345.617 1.512 1.304l.352 1.45c.019.078.09.171.225.221.247.089.49.19.728.302.13.061.246.044.315.002l1.275-.776c.603-.368 1.411-.353 1.99.147.402.349.78.726 1.128 1.129.501.578.515 1.386.147 1.99l-.776 1.274c-.042.069-.058.185.002.315.112.238.213.481.303.728.048.135.142.205.22.225l1.45.352c.687.167 1.249.749 1.303 1.512.038.531.038 1.063 0 1.594-.054.763-.616 1.345-1.303 1.512l-1.45.352c-.078.019-.171.09-.221.225-.089.248-.19.491-.302.728-.061.13-.044.246-.002.315l.776 1.275c.368.603.353 1.411-.147 1.99-.349.402-.726.78-1.129 1.128-.578.501-1.386.515-1.99.147l-1.274-.776c-.069-.042-.185-.058-.314.002a8.606 8.606 0 01-.729.303c-.135.048-.205.142-.225.22l-.352 1.45c-.167.687-.749 1.249-1.512 1.303-.531.038-1.063.038-1.594 0-.763-.054-1.345-.616-1.512-1.303l-.352-1.45c-.019-.078-.09-.171-.225-.221a8.138 8.138 0 01-.728-.302c-.13-.061-.246-.044-.315-.002l-1.275.776c-.603.368-1.411.353-1.99-.147-.402-.349-.78-.726-1.128-1.129-.501-.578-.515-1.386-.147-1.99l.776-1.274c.042-.069.058-.185-.002-.314a8.606 8.606 0 01-.303-.729c-.048-.135-.142-.205-.22-.225l-1.45-.352c-.687-.167-1.249-.749-1.304-1.512a11.158 11.158 0 010-1.594c.055-.763.617-1.345 1.304-1.512l1.45-.352c.078-.019.171-.09.221-.225.089-.248.19-.491.302-.728.061-.13.044-.246.002-.315l-.776-1.275c-.368-.603-.353-1.411.147-1.99.349-.402.726-.78 1.129-1.128.578-.501 1.386-.515 1.99-.147l1.274.776c.069.042.185.058.315-.002.238-.112.481-.213.728-.303.135-.048.205-.142.225-.22l.352-1.45c.167-.687.749-1.249 1.512-1.304C11.466 1.01 11.732 1 12 1zm-.69 1.525c-.055.004-.135.05-.161.161l-.353 1.45a1.832 1.832 0 01-1.172 1.277 7.147 7.147 0 00-.6.249 1.833 1.833 0 01-1.734-.074l-1.274-.776c-.098-.06-.186-.036-.228 0a9.774 9.774 0 00-.976.976c-.036.042-.06.131 0 .228l.776 1.274c.314.529.342 1.18.074 1.734a7.147 7.147 0 00-.249.6 1.831 1.831 0 01-1.278 1.173l-1.45.351c-.11.027-.156.107-.16.162a9.63 9.63 0 000 1.38c.004.055.05.135.161.161l1.45.353a1.832 1.832 0 011.277 1.172c.074.204.157.404.249.6.268.553.24 1.204-.074 1.733l-.776 1.275c-.06.098-.036.186 0 .228.301.348.628.675.976.976.042.036.131.06.228 0l1.274-.776a1.83 1.83 0 011.734-.075c.196.093.396.176.6.25a1.831 1.831 0 011.173 1.278l.351 1.45c.027.11.107.156.162.16a9.63 9.63 0 001.38 0c.055-.004.135-.05.161-.161l.353-1.45a1.834 1.834 0 011.172-1.278 6.82 6.82 0 00.6-.248 1.831 1.831 0 011.733.074l1.275.776c.098.06.186.036.228 0 .348-.301.675-.628.976-.976.036-.042.06-.131 0-.228l-.776-1.275a1.834 1.834 0 01-.075-1.733c.093-.196.176-.396.25-.6a1.831 1.831 0 011.278-1.173l1.45-.351c.11-.027.156-.107.16-.162a9.63 9.63 0 000-1.38c-.004-.055-.05-.135-.161-.161l-1.45-.353c-.626-.152-1.08-.625-1.278-1.172a6.576 6.576 0 00-.248-.6 1.833 1.833 0 01.074-1.734l.776-1.274c.06-.098.036-.186 0-.228a9.774 9.774 0 00-.976-.976c-.042-.036-.131-.06-.228 0l-1.275.776a1.831 1.831 0 01-1.733.074 6.88 6.88 0 00-.6-.249 1.835 1.835 0 01-1.173-1.278l-.351-1.45c-.027-.11-.107-.156-.162-.16a9.63 9.63 0 00-1.38 0z"/></svg>

<svg xmlns="http://www.w3.org/2000/svg" width="24" height="24" viewBox="0 0 24 24">
  <defs/>
  <path d="M16,12 C16,14.209 14.209,16 12,16 C9.791,16 8,14.209 8,12 C8,9.791 9.791,8 12,8 C14.209,8 16,9.791 16,12 Z M14.5,12 C14.5,10.619 13.381,9.5 12,9.5 C10.619,9.5 9.5,10.619 9.5,12 C9.5,13.381 10.619,14.5 12,14.5 C13.381,14.5 14.5,13.381 14.5,12 Z"/>
  <path d="M12,1 C12.266,1 12.532,1.009 12.797,1.028 C13.56,1.083 14.142,1.645 14.309,2.332 L14.661,3.782 C14.68,3.86 14.751,3.953 14.886,4.003 C15.133,4.092 15.376,4.193 15.614,4.305 C15.744,4.366 15.86,4.349 15.929,4.307 L17.204,3.531 C17.807,3.163 18.615,3.178 19.194,3.678 C19.596,4.027 19.974,4.404 20.322,4.807 C20.823,5.385 20.837,6.193 20.469,6.797 L19.693,8.071 C19.651,8.14 19.635,8.256 19.695,8.386 C19.807,8.624 19.908,8.867 19.998,9.114 C20.046,9.249 20.14,9.319 20.218,9.339 L21.668,9.691 C22.355,9.858 22.917,10.44 22.971,11.203 C23.009,11.734 23.009,12.266 22.971,12.797 C22.917,13.56 22.355,14.142 21.668,14.309 L20.218,14.661 C20.14,14.68 20.047,14.751 19.997,14.886 C19.908,15.134 19.807,15.377 19.695,15.614 C19.634,15.744 19.651,15.86 19.693,15.929 L20.469,17.204 C20.837,17.807 20.822,18.615 20.322,19.194 C19.973,19.596 19.596,19.974 19.193,20.322 C18.615,20.823 17.807,20.837 17.203,20.469 L15.929,19.693 C15.86,19.651 15.744,19.635 15.615,19.695 C15.377,19.807 15.134,19.908 14.886,19.998 C14.751,20.046 14.681,20.14 14.661,20.218 L14.309,21.668 C14.142,22.355 13.56,22.917 12.797,22.971 C12.266,23.009 11.734,23.009 11.203,22.971 C10.44,22.917 9.858,22.355 9.691,21.668 L9.339,20.218 C9.32,20.14 9.249,20.047 9.114,19.997 C8.866,19.908 8.623,19.807 8.386,19.695 C8.256,19.634 8.14,19.651 8.071,19.693 L6.796,20.469 C6.193,20.837 5.385,20.822 4.806,20.322 C4.404,19.973 4.026,19.596 3.678,19.193 C3.177,18.615 3.163,17.807 3.531,17.203 L4.307,15.929 C4.349,15.86 4.365,15.744 4.305,15.615 C4.193,15.377 4.092,15.134 4.002,14.886 C3.954,14.751 3.86,14.681 3.782,14.661 L2.332,14.309 C1.645,14.142 1.083,13.56 1.028,12.797 C0.99,12.266 0.99,11.734 1.028,11.203 C1.083,10.44 1.645,9.858 2.332,9.691 L3.782,9.339 C3.86,9.32 3.953,9.249 4.003,9.114 C4.092,8.866 4.193,8.623 4.305,8.386 C4.366,8.256 4.349,8.14 4.307,8.071 L3.531,6.796 C3.163,6.193 3.178,5.385 3.678,4.806 C4.027,4.404 4.404,4.026 4.807,3.678 C5.385,3.177 6.193,3.163 6.797,3.531 L8.071,4.307 C8.14,4.349 8.256,4.365 8.386,4.305 C8.624,4.193 8.867,4.092 9.114,4.002 C9.249,3.954 9.319,3.86 9.339,3.782 L9.691,2.332 C9.858,1.645 10.44,1.083 11.203,1.028 C11.466,1.01 11.732,1 12,1 Z M11.31,2.525 C11.255,2.529 11.175,2.575 11.149,2.686 L10.796,4.136 C10.644,4.731 10.204,5.211 9.624,5.413 C9.42,5.487 9.22,5.57 9.024,5.662 C8.47,5.93 7.819,5.902 7.29,5.588 L6.016,4.812 C5.918,4.752 5.83,4.776 5.788,4.812 C5.44,5.114 5.114,5.44 4.812,5.788 C4.776,5.83 4.752,5.919 4.812,6.016 L5.588,7.29 C5.902,7.819 5.93,8.47 5.662,9.024 C5.57,9.22 5.487,9.42 5.413,9.624 C5.211,10.205 4.731,10.645 4.135,10.797 L2.685,11.148 C2.575,11.175 2.529,11.255 2.525,11.31 C2.492,11.769 2.492,12.231 2.525,12.69 C2.529,12.745 2.575,12.825 2.686,12.851 L4.136,13.204 C4.731,13.356 5.211,13.796 5.413,14.376 C5.487,14.58 5.57,14.78 5.662,14.976 C5.93,15.529 5.902,16.18 5.588,16.709 L4.812,17.984 C4.752,18.082 4.776,18.17 4.812,18.212 C5.113,18.56 5.44,18.887 5.788,19.188 C5.83,19.224 5.919,19.248 6.016,19.188 L7.29,18.412 C7.819,18.097 8.47,18.069 9.024,18.337 C9.22,18.43 9.42,18.513 9.624,18.587 C10.205,18.789 10.645,19.269 10.797,19.865 L11.148,21.315 C11.175,21.425 11.255,21.471 11.31,21.475 C11.769,21.508 12.231,21.508 12.69,21.475 C12.745,21.471 12.825,21.425 12.851,21.314 L13.204,19.864 C13.356,19.268 13.796,18.789 14.376,18.586 C14.58,18.513 14.78,18.43 14.976,18.338 C15.529,18.07 16.18,18.098 16.709,18.412 L17.984,19.188 C18.082,19.248 18.17,19.224 18.212,19.188 C18.56,18.887 18.887,18.56 19.188,18.212 C19.224,18.17 19.248,18.081 19.188,17.984 L18.412,16.709 C18.098,16.181 18.07,15.53 18.337,14.976 C18.43,14.78 18.513,14.58 18.587,14.376 C18.789,13.795 19.269,13.355 19.865,13.203 L21.315,12.852 C21.425,12.825 21.471,12.745 21.475,12.69 C21.508,12.231 21.508,11.769 21.475,11.31 C21.471,11.255 21.425,11.175 21.314,11.149 L19.864,10.796 C19.238,10.644 18.784,10.171 18.586,9.624 C18.513,9.419 18.43,9.219 18.338,9.024 C18.07,8.47 18.098,7.819 18.412,7.29 L19.188,6.016 C19.248,5.918 19.224,5.83 19.188,5.788 C18.886,5.44 18.56,5.114 18.212,4.812 C18.17,4.776 18.081,4.752 17.984,4.812 L16.709,5.588 C16.18,5.902 15.529,5.93 14.976,5.662 C14.781,5.57 14.581,5.487 14.376,5.413 C13.829,5.215 13.356,4.763 13.203,4.135 L12.852,2.685 C12.825,2.575 12.745,2.529 12.69,2.525 C12.231,2.492 11.769,2.492 11.31,2.525 Z"/>
</svg>
